!!!OTL: 769b. Dunkle Wolken.
!!!ARE: Europa, Mitteleuropa, Deutschland
!!!SCT: E0769A
!!!TXL: @@DE
!!!YEM: Copyright 1995, estate of Helmut Schaffrath.
**kern	**text
*ICvox	*
*M3/4	*
*met(3)	*
*k[b-e-]	*
*g:	*
!LO:TX:a:t=Nach Schmeltʒel's 7. Quodlib. 1544.	!
{4g	Es
=1	=1
2g	geht
4g	ein
=2	=2
(4.dd	fin-
8cc)	.
4b-	-ſter
=3	=3
2a	Wol-
8b-/	-ken
8b-/	he-
=4	=4
2a}	-rein,
{4a	ich
=5	=5
2dd	ſorg
4dd	es
=6	=6
(4cc	muß
4b-)	.
4a	ge-
=7	=7
2b-/	-reg-
4a	-net
=8	=8
2g}	ſein,
{4g	es
=9	=9
2d	reg-
4d	-net
=10	=10
2b-	in
4b-	der
=11	=11
(4a	Au-
4dd	.
4cc#i)	.
=12	=12
2.dd}	-e
=13	=13
{4b-/	wol
4a	in
4g	das
=14	=14
(4g	grü-
4a)	.
4f#i	-ne
=15	=15
2g;}	Gras.
==	==
!!!AGN: Abschieds - Lied
!!!ONB: ESAC (Essen Associative Code) Database: ERK2
!!!AMT: simple triple
!!!AIN: vox
!!!EED: Helmut Schaffrath
!!!EEV: 1.0
!!!RDF**kern: i = editorial accidental
!!!GTL: Abschieds- und Wanderlieder
!!!URL-scan: https://rosdok.uni-rostock.de/mcrviewer/recordIdentifier/rosdok_ppn745177662/iview2/phys_0577.iview2?x=138.41861807478858&y=2153.3379093231633&scale=0.7029437510502773&rotation=0&layout=singlePageLayout
!!!ENC: Anna Maria Matuszewska
!!!EEV: 2024/12/16
*-	*-
